static/assets/images/exchanges/bingx.svg

<svg width="323" height="256" viewBox="0 0 323 256" fill="none" xmlns="http://www.w3.org/2000/svg">
<path d="M322.425 0.00135393C260.664 -0.219397 200.301 26.565 158.996 72.285C144.132 87.6639 134.223 106.501 122.303 123.941C93.7521 163.014 49.185 185.604 0.889648 185.579V255.852C62.6263 256.097 122.989 229.214 164.319 183.494C179.109 168.115 189.166 149.302 201.012 131.839C229.563 92.8148 274.13 70.2246 322.425 70.2492V0.00135393Z" fill="url(#paint0_linear_9883_792)"/>
<path d="M322.425 185.579C274.155 185.579 229.563 163.014 201.012 123.99C189.215 106.526 179.134 87.7375 164.368 72.334C123.137 26.6141 62.6753 -0.219399 0.938705 0.0504079V70.3227C54.4094 70.0529 104.078 98.8241 130.961 145.035C138.859 158.819 148.278 171.77 159.045 183.641C200.326 229.337 260.738 256.219 322.474 255.999L322.425 185.579Z" fill="#2A54FF"/>
<defs>
<linearGradient id="paint0_linear_9883_792" x1="21.9132" y1="230.99" x2="302.785" y2="24.1163" gradientUnits="userSpaceOnUse">
<stop stop-color="#2A54FF"/>
<stop offset="0.52" stop-color="#2143CB"/>
<stop offset="1" stop-color="#2A54FF"/>
</linearGradient>
</defs>
</svg>

<svg xmlns="http://www.w3.org/2000/svg" fill="none" viewBox="0 0 323 256"><path fill="url(#paint0_linear_9883_792)" d="M322.425.001c-61.761-.22-122.124 26.564-163.429 72.284-14.864 15.379-24.773 34.216-36.693 51.656C93.753 163.014 49.185 185.604.89 185.579v70.273c61.736.245 122.099-26.638 163.429-72.358 14.79-15.379 24.847-34.192 36.693-51.655 28.551-39.024 73.118-61.614 121.413-61.59z"/><path fill="#2A54FF" d="M322.425 185.579c-48.27 0-92.862-22.565-121.413-61.589-11.797-17.464-21.878-36.252-36.644-51.656C123.137 26.614 62.675-.219.938.05v70.273c53.471-.27 103.14 28.501 130.023 74.712a221 221 0 0 0 28.084 38.606c41.281 45.696 101.693 72.578 163.429 72.358z"/><defs><linearGradient id="paint0_linear_9883_792" x1="21.913" x2="302.785" y1="230.99" y2="24.116" gradientUnits="userSpaceOnUse"><stop stop-color="#2A54FF"/><stop offset=".52" stop-color="#2143CB"/><stop offset="1" stop-color="#2A54FF"/></linearGradient></defs></svg>
